images/client08.svg

<svg fill="none" height="200" viewBox="0 0 200 200" width="200" xmlns="http://www.w3.org/2000/svg"><path d="m100 43c-31.5156 0-57 25.4844-57 57 0 31.516 25.4844 57 57 57 31.516 0 57-25.484 57-57 0-31.3458-25.145-57-57-57" fill="#2c2c2c"/><path d="m116.99 57.0164-16.905 56.0656-.0852.085-.1698-.085-16.9047-56.0656-21.8315 71.7806h4.0774s2.7184-12.487 7.2206-19.962c2.4635-4.078 6.2012-7.391 11.2131-7.306 3.5678.085 6.626 2.039 10.4486 7.391.8495 1.189 1.8689 3.143 2.8883 5.011 1.6139 3.143 2.9731 6.372 2.9731 6.372s3.5681-8.155 5.8611-11.383c3.823-5.352 6.881-7.306 10.449-7.391 5.012-.085 8.834 3.228 11.213 7.306 4.502 7.475 7.221 19.962 7.221 19.962h4.077z" fill="#fff"/></svg>

<svg width="200" height="200" viewBox="0 0 200 200" fill="none" xmlns="http://www.w3.org/2000/svg">
<path d="M100 43C68.4844 43 43 68.4844 43 100C43 131.516 68.4844 157 100 157C131.516 157 157 131.516 157 100C157 68.6542 131.855 43 100 43" fill="#2C2C2C"/>
<path d="M116.99 57.0164L100.085 113.082L99.9998 113.167L99.83 113.082L82.9253 57.0164L61.0938 128.797H65.1712C65.1712 128.797 67.8896 116.31 72.3918 108.835C74.8553 104.757 78.593 101.444 83.6049 101.529C87.1727 101.614 90.2309 103.568 94.0535 108.92C94.903 110.109 95.9224 112.063 96.9418 113.931C98.5557 117.074 99.9149 120.303 99.9149 120.303C99.9149 120.303 103.483 112.148 105.776 108.92C109.599 103.568 112.657 101.614 116.225 101.529C121.237 101.444 125.059 104.757 127.438 108.835C131.94 116.31 134.659 128.797 134.659 128.797H138.736L116.99 57.0164Z" fill="white"/>
</svg>
